report_00007_2020-12-11T15:55:29.892Z/meta/score/comparison/line/2_vs_3.svg

<svg width="640" height="500" xmlns="http://www.w3.org/2000/svg" xmlns:xlink="http://www.w3.org/1999/xlink"><path fill="#fff" d="M0 0h640v500H0z"/><defs><path id="d" stroke-width=".222" stroke="currentColor" d="M-1-1h2v2h-2z"/><path id="b" stroke-width=".222" stroke="currentColor" d="M0-1.33l-1.33 2h2.66z"/><path id="f" stroke-width=".222" stroke="currentColor" d="M0 1.33L1.265.411.782-1.067l-1.564-.009-.483 1.487z"/><use xlink:href="#b" id="c" stroke="currentColor" transform="rotate(180)"/><use xlink:href="#d" id="e" stroke="currentColor" transform="rotate(45)"/><circle id="a" stroke-width=".222" stroke="currentColor" cx="0" cy="0" r="1"/></defs><g fill="none" color="#000" stroke="currentColor"><path stroke="#000" d="M62.2 445.3h9m543.8 0h-9"/><text transform="translate(53.9 449.2)" stroke="none" fill="#000" font-family="Arial" font-size="12" text-anchor="end"><tspan>0.49</tspan></text></g><g fill="none" color="#000" stroke="currentColor"><path stroke="#000" d="M62.2 389.9h9m543.8 0h-9"/><text transform="translate(53.9 393.8)" stroke="none" fill="#000" font-family="Arial" font-size="12" text-anchor="end"><tspan>0.5</tspan></text></g><g fill="none" color="#000" stroke="currentColor"><path stroke="#000" d="M62.2 334.6h9m543.8 0h-9"/><text transform="translate(53.9 338.5)" stroke="none" fill="#000" font-family="Arial" font-size="12" text-anchor="end"><tspan>0.51</tspan></text></g><g fill="none" color="#000" stroke="currentColor"><path stroke="#000" d="M62.2 279.3h9m543.8 0h-9"/><text transform="translate(53.9 283.2)" stroke="none" fill="#000" font-family="Arial" font-size="12" text-anchor="end"><tspan>0.52</tspan></text></g><g fill="none" color="#000" stroke="currentColor"><path stroke="#000" d="M62.2 223.9h9m543.8 0h-9"/><text transform="translate(53.9 227.8)" stroke="none" fill="#000" font-family="Arial" font-size="12" text-anchor="end"><tspan>0.53</tspan></text></g><g fill="none" color="#000" stroke="currentColor"><path stroke="#000" d="M62.2 168.6h9m543.8 0h-9"/><text transform="translate(53.9 172.5)" stroke="none" fill="#000" font-family="Arial" font-size="12" text-anchor="end"><tspan>0.54</tspan></text></g><g fill="none" color="#000" stroke="currentColor"><path stroke="#000" d="M62.2 113.3h9m543.8 0h-9"/><text transform="translate(53.9 117.2)" stroke="none" fill="#000" font-family="Arial" font-size="12" text-anchor="end"><tspan>0.55</tspan></text></g><g fill="none" color="#000" stroke="currentColor"><path stroke="#000" d="M62.2 57.9h9m543.8 0h-9"/><text transform="translate(53.9 61.8)" stroke="none" fill="#000" font-family="Arial" font-size="12" text-anchor="end"><tspan>0.56</tspan></text></g><g fill="none" color="#000" stroke="currentColor"><path stroke="#000" d="M62.2 446v-9m0-418.9v9"/><text transform="translate(62.2 467.9)" stroke="none" fill="#000" font-family="Arial" font-size="12" text-anchor="middle"><tspan>0</tspan></text></g><g fill="none" color="#000" stroke="currentColor"><path stroke="#000" d="M118 446v-9m0-418.9v9"/><text transform="translate(118 467.9)" stroke="none" fill="#000" font-family="Arial" font-size="12" text-anchor="middle"><tspan>10</tspan></text></g><g fill="none" color="#000" stroke="currentColor"><path stroke="#000" d="M173.9 446v-9m0-418.9v9"/><text transform="translate(173.9 467.9)" stroke="none" fill="#000" font-family="Arial" font-size="12" text-anchor="middle"><tspan>20</tspan></text></g><g fill="none" color="#000" stroke="currentColor"><path stroke="#000" d="M229.7 446v-9m0-418.9v9"/><text transform="translate(229.7 467.9)" stroke="none" fill="#000" font-family="Arial" font-size="12" text-anchor="middle"><tspan>30</tspan></text></g><g fill="none" color="#000" stroke="currentColor"><path stroke="#000" d="M285.6 446v-9m0-418.9v9"/><text transform="translate(285.6 467.9)" stroke="none" fill="#000" font-family="Arial" font-size="12" text-anchor="middle"><tspan>40</tspan></text></g><g fill="none" color="#000" stroke="currentColor"><path stroke="#000" d="M341.4 446v-9m0-418.9v9"/><text transform="translate(341.4 467.9)" stroke="none" fill="#000" font-family="Arial" font-size="12" text-anchor="middle"><tspan>50</tspan></text></g><g fill="none" color="#000" stroke="currentColor"><path stroke="#000" d="M397.2 446v-9m0-418.9v9"/><text transform="translate(397.2 467.9)" stroke="none" fill="#000" font-family="Arial" font-size="12" text-anchor="middle"><tspan>60</tspan></text></g><g fill="none" color="#000" stroke="currentColor"><path stroke="#000" d="M453.1 446v-9m0-418.9v9"/><text transform="translate(453.1 467.9)" stroke="none" fill="#000" font-family="Arial" font-size="12" text-anchor="middle"><tspan>70</tspan></text></g><g fill="none" color="#000" stroke="currentColor"><path stroke="#000" d="M508.9 446v-9m0-418.9v9"/><text transform="translate(508.9 467.9)" stroke="none" fill="#000" font-family="Arial" font-size="12" text-anchor="middle"><tspan>80</tspan></text></g><g fill="none" color="#000" stroke="currentColor"><path stroke="#000" d="M564.7 446v-9m0-418.9v9"/><text transform="translate(564.7 467.9)" stroke="none" fill="#000" font-family="Arial" font-size="12" text-anchor="middle"><tspan>90</tspan></text></g><path stroke="#000" d="M62.2 18.1V446H615V18.1H62.2z" fill="none" color="#000"/><text transform="translate(279.8 485.9)" stroke="none" fill="#000" font-family="Arial" font-size="12" text-anchor="end" color="#000"><tspan>pages+cached</tspan></text><path stroke="#9400D3" d="M288.1 482h42.2M62.2 294.9l5.6 42.4 5.6-169.4 5.6 62.7 5.5-11.4L90.1 338l5.6-249.6 5.6 349.4 5.6-142.8 5.6-51 5.5-128.7 5.6 139.1 5.6-115.9 5.6 272.5 5.6-168.4 5.6 97.9 5.5-204.8 5.6 210.7 5.6-168.4 5.6 108.9 5.6-128.7 5.6 4.6 5.5 125.7 5.6-188.6 5.6 84.1 5.6 4 5.6-51.5 5.6 149.2 5.5-128 5.6 138.4 5.6-47.9 5.6-39.2 5.6-85.2 5.6 8 5.6 106.2 5.5 3.5 5.6-15.3 5.6 132.7 5.6-225.5 5.6 124.4 5.6-123.2 5.5 93.8 5.6 18 5.6 134.1 5.6-192.4 5.6-7.4 5.6 14 5.5-53.1 5.6-48 5.6 148.5 5.6-124.9 5.6 88.5 5.6-102.8 5.5 142.4 5.6.3 5.6-24.3 5.6 113.2 5.6-37.8 5.6-24.8 5.5-110 5.6 232.6 5.6-141.6 5.6-134.9 5.6 34.9 5.6 190.4 5.5-156.4 5.6-96.8 5.6 77.7 5.6-22.9 5.6-21.2 5.6 111.9 5.6-135.9 5.5 201.8 5.6-69.7 5.6-63.2 5.6 24 5.6-48.7 5.6-18.4 5.5-29.7 5.6 72 5.6 209.1 5.6-206.8 5.6 165.3 5.6-104.8 5.5-25.2 5.6-4.3 5.6 87L548 99.3l5.6 114.7 5.6 109.6 5.5-92.3 5.6-36 5.6 5.7 5.6-174.7 5.6 149.3 5.6-43.7 5.5-16.1 5.6-20 5.6 72.1 5.6 203.6" fill="none" color="#000"/><text transform="translate(554.4 485.9)" stroke="none" fill="#000" font-family="Arial" font-size="12" text-anchor="end" color="#000"><tspan>pages+cached+nointeractive</tspan></text><path stroke="#009E73" d="M562.7 482h42.2M62.2 177.3l5.6-43.8 5.6 79.5 5.6-50 5.5 7.2 5.6 14 5.6-15.7 5.6 68 5.6 40.2 5.6 120.3 5.5-118.2 5.6 62.3 5.6-122 5.6 115.5 5.6-204.6 5.6-37.6 5.5 150.8 5.6-111.2 5.6 6.3 5.6 186 5.6-239 5.6 103.6 5.5-94.3 5.6 130 5.6 97.1 5.6-31.2 5.6-72 5.6-94 5.5 78.5 5.6-83.4 5.6 158.7 5.6-152.1 5.6-4.4 5.6 241.7 5.6-38.8 5.5-206.6 5.6 98.6 5.6-110.5 5.6 163 5.6-132.8 5.6-43.7 5.5 195.2 5.6-55.1 5.6-151.1 5.6 113.3 5.6 11.9 5.6-76.7 5.5 97.9 5.6-16.4 5.6 29.1 5.6-105.3 5.6 52.6 5.6 16.8 5.5 12 5.6 15.9 5.6-119.6 5.6 176.9 5.6-33.6 5.6-121.5 5.5-15.8 5.6 15 5.6 65.9 5.6-15.4 5.6-50.9 5.6 97.1 5.5 8.9 5.6-37.5 5.6 33.8 5.6 6.5 5.6-51.8 5.6-5.8 5.6 182.7 5.5-133.6 5.6 48.3 5.6-145.1 5.6 108.8 5.6-109 5.6 101.9 5.5 4 5.6-127.7 5.6 103.5 5.6-86.5 5.6 142.2 5.6-78.6 5.5 88.3 5.6-128.5 5.6 74.4 5.6 56 5.6-59.2 5.6-9.7 5.5-79.6 5.6 119.1 5.6-136.3 5.6 1.7 5.6 123.7 5.6 118.6 5.5-237.1 5.6 82.8 5.6-89.7 5.6 145.4" fill="none" color="#000"/><g fill="none" color="#000" stroke="currentColor"><path stroke="#000" d="M62.2 18.1V446H615V18.1H62.2z"/></g></svg>

<?xml version="1.0" encoding="utf-8"  standalone="no"?>
<svg 
 width="640" height="500"
 viewBox="0 0 640 500"
 xmlns="http://www.w3.org/2000/svg"
 xmlns:xlink="http://www.w3.org/1999/xlink"
>

<title>Gnuplot</title>
<desc>Produced by GNUPLOT 5.4 patchlevel 0 </desc>

<g id="gnuplot_canvas">

<rect x="0" y="0" width="640" height="500" fill="#ffffff"/>
<defs>

	<circle id='gpDot' r='0.5' stroke-width='0.5' stroke='currentColor'/>
	<path id='gpPt0' stroke-width='0.222' stroke='currentColor' d='M-1,0 h2 M0,-1 v2'/>
	<path id='gpPt1' stroke-width='0.222' stroke='currentColor' d='M-1,-1 L1,1 M1,-1 L-1,1'/>
	<path id='gpPt2' stroke-width='0.222' stroke='currentColor' d='M-1,0 L1,0 M0,-1 L0,1 M-1,-1 L1,1 M-1,1 L1,-1'/>
	<rect id='gpPt3' stroke-width='0.222' stroke='currentColor' x='-1' y='-1' width='2' height='2'/>
	<rect id='gpPt4' stroke-width='0.222' stroke='currentColor' fill='currentColor' x='-1' y='-1' width='2' height='2'/>
	<circle id='gpPt5' stroke-width='0.222' stroke='currentColor' cx='0' cy='0' r='1'/>
	<use xlink:href='#gpPt5' id='gpPt6' fill='currentColor' stroke='none'/>
	<path id='gpPt7' stroke-width='0.222' stroke='currentColor' d='M0,-1.33 L-1.33,0.67 L1.33,0.67 z'/>
	<use xlink:href='#gpPt7' id='gpPt8' fill='currentColor' stroke='none'/>
	<use xlink:href='#gpPt7' id='gpPt9' stroke='currentColor' transform='rotate(180)'/>
	<use xlink:href='#gpPt9' id='gpPt10' fill='currentColor' stroke='none'/>
	<use xlink:href='#gpPt3' id='gpPt11' stroke='currentColor' transform='rotate(45)'/>
	<use xlink:href='#gpPt11' id='gpPt12' fill='currentColor' stroke='none'/>
	<path id='gpPt13' stroke-width='0.222' stroke='currentColor' d='M0,1.330 L1.265,0.411 L0.782,-1.067 L-0.782,-1.076 L-1.265,0.411 z'/>
	<use xlink:href='#gpPt13' id='gpPt14' fill='currentColor' stroke='none'/>
	<filter id='textbox' filterUnits='objectBoundingBox' x='0' y='0' height='1' width='1'>
	  <feFlood flood-color='#FFFFFF' flood-opacity='1' result='bgnd'/>
	  <feComposite in='SourceGraphic' in2='bgnd' operator='atop'/>
	</filter>
	<filter id='greybox' filterUnits='objectBoundingBox' x='0' y='0' height='1' width='1'>
	  <feFlood flood-color='lightgrey' flood-opacity='1' result='grey'/>
	  <feComposite in='SourceGraphic' in2='grey' operator='atop'/>
	</filter>
</defs>
<g fill="none" color="#FFFFFF" stroke="black" stroke-width="1.00" stroke-linecap="butt" stroke-linejoin="miter">
</g>
<g fill="none" color="black" stroke="currentColor" stroke-width="1.00" stroke-linecap="butt" stroke-linejoin="miter">
	<path stroke='black'  d='M62.2,445.3 L71.2,445.3 M615.0,445.3 L606.0,445.3  '/>	<g transform="translate(53.9,449.2)" stroke="none" fill="black" font-family="Arial" font-size="12.00"  text-anchor="end">
		<text><tspan font-family="Arial" > 0.49</tspan></text>
	</g>
</g>
<g fill="none" color="black" stroke="currentColor" stroke-width="1.00" stroke-linecap="butt" stroke-linejoin="miter">
	<path stroke='black'  d='M62.2,389.9 L71.2,389.9 M615.0,389.9 L606.0,389.9  '/>	<g transform="translate(53.9,393.8)" stroke="none" fill="black" font-family="Arial" font-size="12.00"  text-anchor="end">
		<text><tspan font-family="Arial" > 0.5</tspan></text>
	</g>
</g>
<g fill="none" color="black" stroke="currentColor" stroke-width="1.00" stroke-linecap="butt" stroke-linejoin="miter">
	<path stroke='black'  d='M62.2,334.6 L71.2,334.6 M615.0,334.6 L606.0,334.6  '/>	<g transform="translate(53.9,338.5)" stroke="none" fill="black" font-family="Arial" font-size="12.00"  text-anchor="end">
		<text><tspan font-family="Arial" > 0.51</tspan></text>
	</g>
</g>
<g fill="none" color="black" stroke="currentColor" stroke-width="1.00" stroke-linecap="butt" stroke-linejoin="miter">
	<path stroke='black'  d='M62.2,279.3 L71.2,279.3 M615.0,279.3 L606.0,279.3  '/>	<g transform="translate(53.9,283.2)" stroke="none" fill="black" font-family="Arial" font-size="12.00"  text-anchor="end">
		<text><tspan font-family="Arial" > 0.52</tspan></text>
	</g>
</g>
<g fill="none" color="black" stroke="currentColor" stroke-width="1.00" stroke-linecap="butt" stroke-linejoin="miter">
	<path stroke='black'  d='M62.2,223.9 L71.2,223.9 M615.0,223.9 L606.0,223.9  '/>	<g transform="translate(53.9,227.8)" stroke="none" fill="black" font-family="Arial" font-size="12.00"  text-anchor="end">
		<text><tspan font-family="Arial" > 0.53</tspan></text>
	</g>
</g>
<g fill="none" color="black" stroke="currentColor" stroke-width="1.00" stroke-linecap="butt" stroke-linejoin="miter">
	<path stroke='black'  d='M62.2,168.6 L71.2,168.6 M615.0,168.6 L606.0,168.6  '/>	<g transform="translate(53.9,172.5)" stroke="none" fill="black" font-family="Arial" font-size="12.00"  text-anchor="end">
		<text><tspan font-family="Arial" > 0.54</tspan></text>
	</g>
</g>
<g fill="none" color="black" stroke="currentColor" stroke-width="1.00" stroke-linecap="butt" stroke-linejoin="miter">
	<path stroke='black'  d='M62.2,113.3 L71.2,113.3 M615.0,113.3 L606.0,113.3  '/>	<g transform="translate(53.9,117.2)" stroke="none" fill="black" font-family="Arial" font-size="12.00"  text-anchor="end">
		<text><tspan font-family="Arial" > 0.55</tspan></text>
	</g>
</g>
<g fill="none" color="black" stroke="currentColor" stroke-width="1.00" stroke-linecap="butt" stroke-linejoin="miter">
	<path stroke='black'  d='M62.2,57.9 L71.2,57.9 M615.0,57.9 L606.0,57.9  '/>	<g transform="translate(53.9,61.8)" stroke="none" fill="black" font-family="Arial" font-size="12.00"  text-anchor="end">
		<text><tspan font-family="Arial" > 0.56</tspan></text>
	</g>
</g>
<g fill="none" color="black" stroke="currentColor" stroke-width="1.00" stroke-linecap="butt" stroke-linejoin="miter">
	<path stroke='black'  d='M62.2,446.0 L62.2,437.0 M62.2,18.1 L62.2,27.1  '/>	<g transform="translate(62.2,467.9)" stroke="none" fill="black" font-family="Arial" font-size="12.00"  text-anchor="middle">
		<text><tspan font-family="Arial" > 0</tspan></text>
	</g>
</g>
<g fill="none" color="black" stroke="currentColor" stroke-width="1.00" stroke-linecap="butt" stroke-linejoin="miter">
	<path stroke='black'  d='M118.0,446.0 L118.0,437.0 M118.0,18.1 L118.0,27.1  '/>	<g transform="translate(118.0,467.9)" stroke="none" fill="black" font-family="Arial" font-size="12.00"  text-anchor="middle">
		<text><tspan font-family="Arial" > 10</tspan></text>
	</g>
</g>
<g fill="none" color="black" stroke="currentColor" stroke-width="1.00" stroke-linecap="butt" stroke-linejoin="miter">
	<path stroke='black'  d='M173.9,446.0 L173.9,437.0 M173.9,18.1 L173.9,27.1  '/>	<g transform="translate(173.9,467.9)" stroke="none" fill="black" font-family="Arial" font-size="12.00"  text-anchor="middle">
		<text><tspan font-family="Arial" > 20</tspan></text>
	</g>
</g>
<g fill="none" color="black" stroke="currentColor" stroke-width="1.00" stroke-linecap="butt" stroke-linejoin="miter">
	<path stroke='black'  d='M229.7,446.0 L229.7,437.0 M229.7,18.1 L229.7,27.1  '/>	<g transform="translate(229.7,467.9)" stroke="none" fill="black" font-family="Arial" font-size="12.00"  text-anchor="middle">
		<text><tspan font-family="Arial" > 30</tspan></text>
	</g>
</g>
<g fill="none" color="black" stroke="currentColor" stroke-width="1.00" stroke-linecap="butt" stroke-linejoin="miter">
	<path stroke='black'  d='M285.6,446.0 L285.6,437.0 M285.6,18.1 L285.6,27.1  '/>	<g transform="translate(285.6,467.9)" stroke="none" fill="black" font-family="Arial" font-size="12.00"  text-anchor="middle">
		<text><tspan font-family="Arial" > 40</tspan></text>
	</g>
</g>
<g fill="none" color="black" stroke="currentColor" stroke-width="1.00" stroke-linecap="butt" stroke-linejoin="miter">
	<path stroke='black'  d='M341.4,446.0 L341.4,437.0 M341.4,18.1 L341.4,27.1  '/>	<g transform="translate(341.4,467.9)" stroke="none" fill="black" font-family="Arial" font-size="12.00"  text-anchor="middle">
		<text><tspan font-family="Arial" > 50</tspan></text>
	</g>
</g>
<g fill="none" color="black" stroke="currentColor" stroke-width="1.00" stroke-linecap="butt" stroke-linejoin="miter">
	<path stroke='black'  d='M397.2,446.0 L397.2,437.0 M397.2,18.1 L397.2,27.1  '/>	<g transform="translate(397.2,467.9)" stroke="none" fill="black" font-family="Arial" font-size="12.00"  text-anchor="middle">
		<text><tspan font-family="Arial" > 60</tspan></text>
	</g>
</g>
<g fill="none" color="black" stroke="currentColor" stroke-width="1.00" stroke-linecap="butt" stroke-linejoin="miter">
	<path stroke='black'  d='M453.1,446.0 L453.1,437.0 M453.1,18.1 L453.1,27.1  '/>	<g transform="translate(453.1,467.9)" stroke="none" fill="black" font-family="Arial" font-size="12.00"  text-anchor="middle">
		<text><tspan font-family="Arial" > 70</tspan></text>
	</g>
</g>
<g fill="none" color="black" stroke="currentColor" stroke-width="1.00" stroke-linecap="butt" stroke-linejoin="miter">
	<path stroke='black'  d='M508.9,446.0 L508.9,437.0 M508.9,18.1 L508.9,27.1  '/>	<g transform="translate(508.9,467.9)" stroke="none" fill="black" font-family="Arial" font-size="12.00"  text-anchor="middle">
		<text><tspan font-family="Arial" > 80</tspan></text>
	</g>
</g>
<g fill="none" color="black" stroke="currentColor" stroke-width="1.00" stroke-linecap="butt" stroke-linejoin="miter">
	<path stroke='black'  d='M564.7,446.0 L564.7,437.0 M564.7,18.1 L564.7,27.1  '/>	<g transform="translate(564.7,467.9)" stroke="none" fill="black" font-family="Arial" font-size="12.00"  text-anchor="middle">
		<text><tspan font-family="Arial" > 90</tspan></text>
	</g>
</g>
<g fill="none" color="black" stroke="currentColor" stroke-width="1.00" stroke-linecap="butt" stroke-linejoin="miter">
</g>
<g fill="none" color="black" stroke="currentColor" stroke-width="1.00" stroke-linecap="butt" stroke-linejoin="miter">
	<path stroke='black'  d='M62.2,18.1 L62.2,446.0 L615.0,446.0 L615.0,18.1 L62.2,18.1 Z  '/></g>
<g fill="none" color="black" stroke="currentColor" stroke-width="1.00" stroke-linecap="butt" stroke-linejoin="miter">
</g>
	<g id="gnuplot_plot_1" ><title>pages+cached</title>
<g fill="none" color="black" stroke="currentColor" stroke-width="1.00" stroke-linecap="butt" stroke-linejoin="miter">
	<g transform="translate(279.8,485.9)" stroke="none" fill="black" font-family="Arial" font-size="12.00"  text-anchor="end">
		<text><tspan font-family="Arial" >pages+cached</tspan></text>
	</g>
</g>
<g fill="none" color="black" stroke="currentColor" stroke-width="1.00" stroke-linecap="butt" stroke-linejoin="miter">
	<path stroke='rgb(148,   0, 211)'  d='M288.1,482.0 L330.3,482.0 M62.2,294.9 L67.8,337.3 L73.4,167.9 L79.0,230.6 L84.5,219.2 L90.1,338.0
		L95.7,88.4 L101.3,437.8 L106.9,295.0 L112.5,244.0 L118.0,115.3 L123.6,254.4 L129.2,138.5 L134.8,411.0
		L140.4,242.6 L146.0,340.5 L151.5,135.7 L157.1,346.4 L162.7,178.0 L168.3,286.9 L173.9,158.2 L179.5,162.8
		L185.0,288.5 L190.6,99.9 L196.2,184.0 L201.8,188.0 L207.4,136.5 L213.0,285.7 L218.5,157.7 L224.1,296.1
		L229.7,248.2 L235.3,209.0 L240.9,123.8 L246.5,131.8 L252.1,238.0 L257.6,241.5 L263.2,226.2 L268.8,358.9
		L274.4,133.4 L280.0,257.8 L285.6,134.6 L291.1,228.4 L296.7,246.4 L302.3,380.5 L307.9,188.1 L313.5,180.7
		L319.1,194.7 L324.6,141.6 L330.2,93.6 L335.8,242.1 L341.4,117.2 L347.0,205.7 L352.6,102.9 L358.1,245.3
		L363.7,245.6 L369.3,221.3 L374.9,334.5 L380.5,296.7 L386.1,271.9 L391.6,161.9 L397.2,394.5 L402.8,252.9
		L408.4,118.0 L414.0,152.9 L419.6,343.3 L425.1,186.9 L430.7,90.1 L436.3,167.8 L441.9,144.9 L447.5,123.7
		L453.1,235.6 L458.7,99.7 L464.2,301.5 L469.8,231.8 L475.4,168.6 L481.0,192.6 L486.6,143.9 L492.2,125.5
		L497.7,95.8 L503.3,167.8 L508.9,376.9 L514.5,170.1 L520.1,335.4 L525.7,230.6 L531.2,205.4 L536.8,201.1
		L542.4,288.1 L548.0,99.3 L553.6,214.0 L559.2,323.6 L564.7,231.3 L570.3,195.3 L575.9,201.0 L581.5,26.3
		L587.1,175.6 L592.7,131.9 L598.2,115.8 L603.8,95.8 L609.4,167.9 L615.0,371.5  '/></g>
	</g>
	<g id="gnuplot_plot_2" ><title>pages+cached+nointeractive</title>
<g fill="none" color="black" stroke="currentColor" stroke-width="1.00" stroke-linecap="butt" stroke-linejoin="miter">
	<g transform="translate(554.4,485.9)" stroke="none" fill="black" font-family="Arial" font-size="12.00"  text-anchor="end">
		<text><tspan font-family="Arial" >pages+cached+nointeractive</tspan></text>
	</g>
</g>
<g fill="none" color="black" stroke="currentColor" stroke-width="1.00" stroke-linecap="butt" stroke-linejoin="miter">
	<path stroke='rgb(  0, 158, 115)'  d='M562.7,482.0 L604.9,482.0 M62.2,177.3 L67.8,133.5 L73.4,213.0 L79.0,163.0 L84.5,170.2 L90.1,184.2
		L95.7,168.5 L101.3,236.5 L106.9,276.7 L112.5,397.0 L118.0,278.8 L123.6,341.1 L129.2,219.1 L134.8,334.6
		L140.4,130.0 L146.0,92.4 L151.5,243.2 L157.1,132.0 L162.7,138.3 L168.3,324.3 L173.9,85.3 L179.5,188.9
		L185.0,94.6 L190.6,224.6 L196.2,321.7 L201.8,290.5 L207.4,218.5 L213.0,124.5 L218.5,203.0 L224.1,119.6
		L229.7,278.3 L235.3,126.2 L240.9,121.8 L246.5,363.5 L252.1,324.7 L257.6,118.1 L263.2,216.7 L268.8,106.2
		L274.4,269.2 L280.0,136.4 L285.6,92.7 L291.1,287.9 L296.7,232.8 L302.3,81.7 L307.9,195.0 L313.5,206.9
		L319.1,130.2 L324.6,228.1 L330.2,211.7 L335.8,240.8 L341.4,135.5 L347.0,188.1 L352.6,204.9 L358.1,216.9
		L363.7,232.8 L369.3,113.2 L374.9,290.1 L380.5,256.5 L386.1,135.0 L391.6,119.2 L397.2,134.2 L402.8,200.1
		L408.4,184.7 L414.0,133.8 L419.6,230.9 L425.1,239.8 L430.7,202.3 L436.3,236.1 L441.9,242.6 L447.5,190.8
		L453.1,185.0 L458.7,367.7 L464.2,234.1 L469.8,282.4 L475.4,137.3 L481.0,246.1 L486.6,137.1 L492.2,239.0
		L497.7,243.0 L503.3,115.3 L508.9,218.8 L514.5,132.3 L520.1,274.5 L525.7,195.9 L531.2,284.2 L536.8,155.7
		L542.4,230.1 L548.0,286.1 L553.6,226.9 L559.2,217.2 L564.7,137.6 L570.3,256.7 L575.9,120.4 L581.5,122.1
		L587.1,245.8 L592.7,364.4 L598.2,127.3 L603.8,210.1 L609.4,120.4 L615.0,265.8  '/></g>
	</g>
<g fill="none" color="#FFFFFF" stroke="rgb(  0, 158, 115)" stroke-width="2.00" stroke-linecap="butt" stroke-linejoin="miter">
</g>
<g fill="none" color="black" stroke="currentColor" stroke-width="2.00" stroke-linecap="butt" stroke-linejoin="miter">
</g>
<g fill="none" color="black" stroke="black" stroke-width="1.00" stroke-linecap="butt" stroke-linejoin="miter">
</g>
<g fill="none" color="black" stroke="currentColor" stroke-width="1.00" stroke-linecap="butt" stroke-linejoin="miter">
	<path stroke='black'  d='M62.2,18.1 L62.2,446.0 L615.0,446.0 L615.0,18.1 L62.2,18.1 Z  '/></g>
<g fill="none" color="black" stroke="currentColor" stroke-width="1.00" stroke-linecap="butt" stroke-linejoin="miter">
</g>
</g>
</svg>
